X: 32
T: Hogtie's Reel
C:Phil Cunningham
M:C
L:1/8
K:EMin
edeg A2 gf| edef g2 fg| e2 de A2 ag| edeg BA A2 |
edeg A2 gf| edef g2 fg| a2 ge degd| egdg BA A2 :|
|: ae (3eee a2 ge| dBde g2 fg| ae (3eee a2 ge| d2 eg BA A2|
ae (3eee a2 ge| dBde g2 fg| a2 ge degd| egdg BA A2 :|
|: eA (3AAA eAgA| (3AAA ef g2 fg| eA (3AAA eAag| egdg BA A2|
eA (3AAA eAgA| (3AAA ef g2 fg| aAge degd| egdg BA A2 :|
aA (3AAA a2 ge| dBde g2 fg| aA (3AAA a2 ge| d2 eg BA (3AAA|
aA (3AAA a2 ge| dBde g2 fg | a2 ge degd| egdg BA A2 :|

%%sep 2 1 500

